Project/img/LINEGRAPH.svg

<svg xmlns="http://www.w3.org/2000/svg" xmlns:xlink="http://www.w3.org/1999/xlink" preserveAspectRatio="xMidYMid" width="32" height="32" viewBox="0 0 32 32">
  <defs>
    <style>
      .cls-1 {
        fill: #95e1d3;
        fill-rule: evenodd;
      }
    </style>
  </defs>
  <path d="M30.500,32.000 L1.500,32.000 C0.672,32.000 0.000,31.328 0.000,30.500 L0.000,1.500 C0.000,0.672 0.672,-0.000 1.500,-0.000 L30.500,-0.000 C31.328,-0.000 32.000,0.672 32.000,1.500 L32.000,30.500 C32.000,31.328 31.328,32.000 30.500,32.000 ZM29.000,3.000 L3.000,3.000 L3.000,29.000 L29.000,29.000 L29.000,3.000 ZM5.215,16.239 L5.215,16.237 L9.215,13.738 L9.215,13.739 C9.444,13.598 9.712,13.517 10.000,13.517 C10.311,13.517 10.600,13.612 10.840,13.775 L10.846,13.766 L17.477,18.186 L25.115,12.795 C25.363,12.613 25.669,12.506 26.000,12.506 C26.828,12.506 27.500,13.177 27.500,14.005 C27.500,14.505 27.255,14.948 26.878,15.221 L26.879,15.221 L18.379,21.222 L18.378,21.221 C18.132,21.400 17.828,21.505 17.500,21.505 C17.179,21.505 16.882,21.405 16.639,21.233 L9.982,16.795 L6.847,18.755 C6.606,18.920 6.314,19.017 6.000,19.017 C5.172,19.017 4.500,18.346 4.500,17.517 C4.500,16.976 4.786,16.503 5.215,16.239 Z" class="cls-1"/>
</svg>

<svg xmlns="http://www.w3.org/2000/svg" width="32" height="32" preserveAspectRatio="xMidYMid"><defs><style>.cls-1 { fill: #95e1d3; fill-rule: evenodd; }</style></defs><path d="M30.5 32h-29C.67 32 0 31.33 0 30.5v-29C0 .67.67 0 1.5 0h29c.83 0 1.5.67 1.5 1.5v29c0 .83-.67 1.5-1.5 1.5zM29 3H3v26h26V3zM5.2 16.24l4-2.5h.02c.22-.14.5-.22.78-.22.3 0 .6.1.84.26l6.64 4.4 7.63-5.38c.26-.2.57-.3.9-.3.83 0 1.5.68 1.5 1.5 0 .5-.25.95-.62 1.22l-8.5 6c-.25.18-.55.3-.88.3-.32-.02-.62-.1-.86-.3L9.98 16.8l-3.13 1.95c-.24.17-.54.27-.85.27-.83 0-1.5-.67-1.5-1.5 0-.54.3-1.02.7-1.28z" class="cls-1"/></svg>
